icon-themes/breeze_svg/cmd/lc_exportdialog.svg

<svg viewBox="0 0 24 24" xmlns="http://www.w3.org/2000/svg"><path d="m18 10a1 1 0 0 0 -1 1 1 1 0 0 0 1 1 1 1 0 0 0 1-1 1 1 0 0 0 -1-1zm0 4a1 1 0 0 0 -1 1 1 1 0 0 0 1 1 1 1 0 0 0 1-1 1 1 0 0 0 -1-1zm0 4a1 1 0 0 0 -1 1 1 1 0 0 0 1 1 1 1 0 0 0 1-1 1 1 0 0 0 -1-1z" fill="#f47750"/><path d="m5 4v12 1h5.28125l-2.28125 2.28125.71875.71875 2.78125-2.78125.71875-.71875-.71875-.71875-2.78125-2.78125-.71875.71875 2.28125 2.28125h-4.28125v-11h12v4h1v-5h-1zm7 15v1h4v-1z" fill="#4d4d4d"/></svg>

<svg xmlns="http://www.w3.org/2000/svg" viewBox="0 0 24 24">
 <path 
     style="fill:#f47750" 
     d="M 18 10 A 1 1 0 0 0 17 11 A 1 1 0 0 0 18 12 A 1 1 0 0 0 19 11 A 1 1 0 0 0 18 10 z M 18 14 A 1 1 0 0 0 17 15 A 1 1 0 0 0 18 16 A 1 1 0 0 0 19 15 A 1 1 0 0 0 18 14 z M 18 18 A 1 1 0 0 0 17 19 A 1 1 0 0 0 18 20 A 1 1 0 0 0 19 19 A 1 1 0 0 0 18 18 z "
     />
 <path 
     style="fill:#4d4d4d" 
     d="M 5 4 L 5 16 L 5 17 L 10.28125 17 L 8 19.28125 L 8.71875 20 L 11.5 17.21875 L 12.21875 16.5 L 11.5 15.78125 L 8.71875 13 L 8 13.71875 L 10.28125 16 L 6 16 L 6 5 L 18 5 L 18 9 L 19 9 L 19 4 L 18 4 L 5 4 z M 12 19 L 12 20 L 16 20 L 16 19 L 12 19 z "
     />
 </svg>
